twotone/svg/directions_railway.svg

<svg xmlns="http://www.w3.org/2000/svg" width="24" height="24"><path fill="none" d="M0 0h24v24H0V0z"/><g fill="currentColor"><path opacity=".3" d="M6 15.5c0 .83.67 1.5 1.5 1.5h9c.83 0 1.5-.67 1.5-1.5V12H6v3.5zm6-3c1.1 0 2 .9 2 2s-.9 2-2 2-2-.9-2-2 .9-2 2-2zM12 3C6 3 6 4.2 6 5h12c0-.8 0-2-6-2z"/><path d="M20 15.5V5c0-3.5-3.58-4-8-4s-8 .5-8 4v10.5C4 17.43 5.57 19 7.5 19L6 20.5v.5h12v-.5L16.5 19c1.93 0 3.5-1.57 3.5-3.5zm-2 0c0 .83-.67 1.5-1.5 1.5h-9c-.83 0-1.5-.67-1.5-1.5V12h12v3.5zm0-5.5H6V7h12v3zM6 5c0-.8 0-2 6-2s6 1.2 6 2H6z"/><path d="M12 16.5c1.1 0 2-.9 2-2s-.9-2-2-2-2 .9-2 2 .9 2 2 2z"/></g></svg>

<?xml version="1.0" encoding="utf-8"?>
<!-- Generator: Adobe Illustrator 19.1.0, SVG Export Plug-In . SVG Version: 6.00 Build 0)  -->
<svg version="1.1" xmlns="http://www.w3.org/2000/svg" xmlns:xlink="http://www.w3.org/1999/xlink" x="0px" y="0px" width="24px"
	 height="24px" viewBox="0 0 24 24" enable-background="new 0 0 24 24" xml:space="preserve">
<g id="Bounding_Boxes">
	<path fill="none" d="M0,0h24v24H0V0z"/>
</g>
<g id="Duotone" fill="currentColor">
	<g id="ui_x5F_spec_x5F_header_copy_2">
	</g>
	<g>
		<path opacity="0.3" d="M6,15.5C6,16.33,6.67,17,7.5,17h9c0.83,0,1.5-0.67,1.5-1.5V12H6V15.5z M12,12.5c1.1,0,2,0.9,2,2
			c0,1.1-0.9,2-2,2s-2-0.9-2-2C10,13.4,10.9,12.5,12,12.5z"/>
		<path opacity="0.3" d="M12,3C6,3,6,4.2,6,5h12C18,4.2,18,3,12,3z"/>
		<path d="M20,15.5V5c0-3.5-3.58-4-8-4S4,1.5,4,5v10.5C4,17.43,5.57,19,7.5,19L6,20.5V21h12v-0.5L16.5,19C18.43,19,20,17.43,20,15.5
			z M18,15.5c0,0.83-0.67,1.5-1.5,1.5h-9C6.67,17,6,16.33,6,15.5V12h12V15.5z M18,10H6V7h12V10z M6,5c0-0.8,0-2,6-2s6,1.2,6,2H6z"/>
		<path d="M12,16.5c1.1,0,2-0.9,2-2c0-1.1-0.9-2-2-2s-2,0.9-2,2C10,15.6,10.9,16.5,12,16.5z"/>
	</g>
</g>
</svg>
